material/.icons/material/account-multiple-check-outline.svg

<svg xmlns="http://www.w3.org/2000/svg" viewBox="0 0 24 24"><path d="M13 11a3 3 0 10-3-3 3 3 0 003 3m0-4a1 1 0 11-1 1 1 1 0 011-1m4.11 3.86a5 5 0 000-5.72A2.91 2.91 0 0118 5a3 3 0 010 6 2.91 2.91 0 01-.89-.14M13 13c-6 0-6 4-6 4v2h12v-2s0-4-6-4m-4 4c0-.29.32-2 4-2 3.5 0 3.94 1.56 4 2m7 0v2h-3v-2a5.6 5.6 0 00-1.8-3.94C24 13.55 24 17 24 17M7.34 8.92l1.16 1.41-4.75 4.75-2.75-3 1.16-1.16 1.59 1.58 3.59-3.58"/></svg>

<?xml version="1.0" encoding="UTF-8"?><!DOCTYPE svg PUBLIC "-//W3C//DTD SVG 1.1//EN" "http://www.w3.org/Graphics/SVG/1.1/DTD/svg11.dtd"><svg xmlns="http://www.w3.org/2000/svg" xmlns:xlink="http://www.w3.org/1999/xlink" version="1.1" id="mdi-account-multiple-check-outline" width="24" height="24" viewBox="0 0 24 24"><path d="M13 11A3 3 0 1 0 10 8A3 3 0 0 0 13 11M13 7A1 1 0 1 1 12 8A1 1 0 0 1 13 7M17.11 10.86A5 5 0 0 0 17.11 5.14A2.91 2.91 0 0 1 18 5A3 3 0 0 1 18 11A2.91 2.91 0 0 1 17.11 10.86M13 13C7 13 7 17 7 17V19H19V17S19 13 13 13M9 17C9 16.71 9.32 15 13 15C16.5 15 16.94 16.56 17 17M24 17V19H21V17A5.6 5.6 0 0 0 19.2 13.06C24 13.55 24 17 24 17M7.34 8.92L8.5 10.33L3.75 15.08L1 12.08L2.16 10.92L3.75 12.5L7.34 8.92" /></svg>
